X: 24452
T: Luck Penny, The
R: jig
M: 6/8
K: Gmajor
|:BAG AFD|G2{A}G FGA|BAG BdB|cAG Fdc|
BAG AFD|GBd g~g2|fed gdB|1 cAF G2A:|2 cAF G2B||
d2g {a}gfg|abg fga|bag agf|def g2a|
bag agf|gag fd^c|def gdB|cAF G2B|
d2g {a}gfg|abg fga|bag agf|daf g2a|
bag agf|gag fdB|def gdB|cAF GBc||
dBG {A}GFG|dBG {F}GAB|cA=F {A}FEF|cA=F {A}FBc|
dBG {F}GBd|g~g2 fd^c|def gdB|cAF GBc|
dBG {A}GFG|DGB DGB|cA=F {A}FEF|C=FA C=FA|
dBG {F}GBd|g~g2 fd^c|def gdB|cAF G2||

